website/static/img/logo.svg

<svg width="46" height="34" viewBox="0 0 46 34" fill="none" xmlns="http://www.w3.org/2000/svg">
<g clip-path="url(#clip0_4_70)">
<rect width="46" height="34" fill="white"/>
<path d="M40 11L34.5 16M25 10L28 15.5M24.5 29.5L28 24" stroke="#BCE5E3" stroke-width="2"/>
<path d="M3.81818 26V2.72727H11.6818C13.5 2.72727 14.9924 3.03788 16.1591 3.65909C17.3258 4.27273 18.1894 5.11742 18.75 6.19318C19.3106 7.26894 19.5909 8.49242 19.5909 9.86364C19.5909 11.2348 19.3106 12.4508 18.75 13.5114C18.1894 14.572 17.3295 15.4053 16.1705 16.0114C15.0114 16.6098 13.5303 16.9091 11.7273 16.9091H5.36364V14.3636H11.6364C12.8788 14.3636 13.8788 14.1818 14.6364 13.8182C15.4015 13.4545 15.9545 12.9394 16.2955 12.2727C16.6439 11.5985 16.8182 10.7955 16.8182 9.86364C16.8182 8.93182 16.6439 8.11742 16.2955 7.42045C15.947 6.72348 15.3902 6.18561 14.625 5.80682C13.8598 5.42045 12.8485 5.22727 11.5909 5.22727H6.63636V26H3.81818ZM14.7727 15.5455L20.5 26H17.2273L11.5909 15.5455H14.7727Z" fill="#00C7BE"/>
<path d="M30.5 24.0833C33.0313 24.0833 35.0833 22.0313 35.0833 19.5C35.0833 16.9687 33.0313 14.9167 30.5 14.9167C27.9687 14.9167 25.9167 16.9687 25.9167 19.5C25.9167 22.0313 27.9687 24.0833 30.5 24.0833Z" stroke="#00C7BE" stroke-width="2" stroke-linecap="round" stroke-linejoin="round"/>
<path d="M40.5 11.75C41.1904 11.75 41.75 11.1904 41.75 10.5C41.75 9.80964 41.1904 9.25 40.5 9.25C39.8096 9.25 39.25 9.80964 39.25 10.5C39.25 11.1904 39.8096 11.75 40.5 11.75Z" stroke="#00C7BE" stroke-width="1.6" stroke-linecap="round" stroke-linejoin="round"/>
<path d="M24.5 10.75C25.1904 10.75 25.75 10.1904 25.75 9.5C25.75 8.80964 25.1904 8.25 24.5 8.25C23.8096 8.25 23.25 8.80964 23.25 9.5C23.25 10.1904 23.8096 10.75 24.5 10.75Z" stroke="#00C7BE" stroke-width="1.6" stroke-linecap="round" stroke-linejoin="round"/>
<path d="M23.5 31.75C24.1904 31.75 24.75 31.1904 24.75 30.5C24.75 29.8096 24.1904 29.25 23.5 29.25C22.8096 29.25 22.25 29.8096 22.25 30.5C22.25 31.1904 22.8096 31.75 23.5 31.75Z" stroke="#00C7BE" stroke-width="1.6" stroke-linecap="round" stroke-linejoin="round"/>
</g>
<defs>
<clipPath id="clip0_4_70">
<rect width="46" height="34" fill="white"/>
</clipPath>
</defs>
</svg>

<?xml version="1.0" encoding="UTF-8"?>
<svg id="Layer_1" data-name="Layer 1" xmlns="http://www.w3.org/2000/svg" xmlns:xlink="http://www.w3.org/1999/xlink" version="1.1" viewBox="0 0 46 34">
  <defs>
    <style>
      .cls-1 {
        clip-path: url(#clippath);
      }

      .cls-2, .cls-3, .cls-4, .cls-5 {
        fill: none;
      }

      .cls-2, .cls-6 {
        stroke-width: 0px;
      }

      .cls-3, .cls-4 {
        stroke: #00c7be;
        stroke-linecap: round;
        stroke-linejoin: round;
      }

      .cls-3, .cls-5 {
        stroke-width: 2px;
      }

      .cls-4 {
        stroke-width: 1.6px;
      }

      .cls-5 {
        stroke: #bce5e3;
      }

      .cls-6 {
        fill: #00c7be;
      }
    </style>
    <clipPath id="clippath">
      <rect class="cls-2" width="46" height="34"/>
    </clipPath>
  </defs>
  <g class="cls-1">
    <g>
      <path class="cls-5" d="M40,11l-5.5,5M25,10l3,5.5M24.5,29.5l3.5-5.5"/>
      <path class="cls-6" d="M3.8,26V2.7h7.9c1.8,0,3.3.3,4.5.9,1.2.6,2,1.5,2.6,2.5s.8,2.3.8,3.7-.3,2.6-.8,3.6c-.6,1.1-1.4,1.9-2.6,2.5-1.2.6-2.6.9-4.4.9h-6.4v-2.5h6.3c1.2,0,2.2-.2,3-.5.8-.4,1.3-.9,1.7-1.5.3-.7.5-1.5.5-2.4s-.2-1.7-.5-2.4c-.3-.7-.9-1.2-1.7-1.6-.8-.4-1.8-.6-3-.6h-5v20.8h-2.8ZM14.8,15.5l5.7,10.5h-3.3l-5.6-10.5h3.2Z"/>
      <path class="cls-3" d="M30.5,24.1c2.5,0,4.6-2.1,4.6-4.6s-2.1-4.6-4.6-4.6-4.6,2.1-4.6,4.6,2.1,4.6,4.6,4.6Z"/>
      <path class="cls-4" d="M40.5,11.8c.7,0,1.2-.6,1.2-1.2s-.6-1.2-1.2-1.2-1.2.6-1.2,1.2.6,1.2,1.2,1.2Z"/>
      <path class="cls-4" d="M24.5,10.8c.7,0,1.2-.6,1.2-1.2s-.6-1.2-1.2-1.2-1.2.6-1.2,1.2.6,1.2,1.2,1.2Z"/>
      <path class="cls-4" d="M23.5,31.8c.7,0,1.2-.6,1.2-1.2s-.6-1.2-1.2-1.2-1.2.6-1.2,1.2.6,1.2,1.2,1.2Z"/>
    </g>
  </g>
</svg>
